symbols/web/auto_awesome/materialsymbolsrounded/auto_awesome_wght300gradN25fill1_40px.svg

<svg xmlns="http://www.w3.org/2000/svg" height="40" width="40"><path d="M30.917 12.625q-.209 0-.355-.104-.145-.104-.229-.271l-1-2.292L27 8.917q-.208-.084-.292-.229-.083-.146-.083-.355 0-.208.083-.354.084-.146.292-.271l2.333-1 1-2.166q.084-.209.229-.313.146-.104.355-.104.208 0 .354.104t.229.313l1 2.166 2.333 1q.209.125.313.271.104.146.104.354 0 .209-.104.355-.104.145-.313.229L32.5 9.958l-1 2.292q-.042.167-.208.271-.167.104-.375.104Zm0 23.167q-.167 0-.334-.084-.166-.083-.25-.291l-1-2.167L27 32.208q-.167-.083-.271-.229-.104-.146-.104-.354t.104-.354q.104-.146.271-.271l2.333-1 1-2.292q.084-.166.229-.27.146-.105.355-.105.208 0 .375.105.166.104.208.27l1 2.292 2.333 1q.209.125.292.271.083.146.083.354t-.083.354q-.083.146-.292.229l-2.333 1-1 2.209q-.083.208-.229.291-.146.084-.354.084Zm-16.625-7.167q-.334 0-.646-.187-.313-.188-.479-.563L11 23.208l-4.667-2.125q-.375-.125-.562-.437-.188-.313-.188-.646 0-.375.188-.667.187-.291.562-.5L11 16.75l2.167-4.667q.166-.375.479-.541.312-.167.646-.167.333 0 .646.167.312.166.479.541l2.166 4.667 4.667 2.083q.375.167.562.479.188.313.188.646 0 .334-.188.667-.187.333-.562.458l-4.667 2.125-2.166 4.667q-.167.375-.479.563-.313.187-.646.187Z"/></svg>

<svg xmlns="http://www.w3.org/2000/svg" height="40" width="40"><path d="M30.917 12.625Q30.708 12.625 30.562 12.521Q30.417 12.417 30.333 12.25L29.333 9.958L27 8.917Q26.792 8.833 26.708 8.688Q26.625 8.542 26.625 8.333Q26.625 8.125 26.708 7.979Q26.792 7.833 27 7.708L29.333 6.708L30.333 4.542Q30.417 4.333 30.562 4.229Q30.708 4.125 30.917 4.125Q31.125 4.125 31.271 4.229Q31.417 4.333 31.5 4.542L32.5 6.708L34.833 7.708Q35.042 7.833 35.146 7.979Q35.25 8.125 35.25 8.333Q35.25 8.542 35.146 8.688Q35.042 8.833 34.833 8.917L32.5 9.958L31.5 12.25Q31.458 12.417 31.292 12.521Q31.125 12.625 30.917 12.625ZM30.917 35.792Q30.75 35.792 30.583 35.708Q30.417 35.625 30.333 35.417L29.333 33.25L27 32.208Q26.833 32.125 26.729 31.979Q26.625 31.833 26.625 31.625Q26.625 31.417 26.729 31.271Q26.833 31.125 27 31L29.333 30L30.333 27.708Q30.417 27.542 30.562 27.438Q30.708 27.333 30.917 27.333Q31.125 27.333 31.292 27.438Q31.458 27.542 31.5 27.708L32.5 30L34.833 31Q35.042 31.125 35.125 31.271Q35.208 31.417 35.208 31.625Q35.208 31.833 35.125 31.979Q35.042 32.125 34.833 32.208L32.5 33.208L31.5 35.417Q31.417 35.625 31.271 35.708Q31.125 35.792 30.917 35.792ZM14.292 28.625Q13.958 28.625 13.646 28.438Q13.333 28.25 13.167 27.875L11 23.208L6.333 21.083Q5.958 20.958 5.771 20.646Q5.583 20.333 5.583 20Q5.583 19.625 5.771 19.333Q5.958 19.042 6.333 18.833L11 16.75L13.167 12.083Q13.333 11.708 13.646 11.542Q13.958 11.375 14.292 11.375Q14.625 11.375 14.938 11.542Q15.25 11.708 15.417 12.083L17.583 16.75L22.25 18.833Q22.625 19 22.812 19.312Q23 19.625 23 19.958Q23 20.292 22.812 20.625Q22.625 20.958 22.25 21.083L17.583 23.208L15.417 27.875Q15.25 28.25 14.938 28.438Q14.625 28.625 14.292 28.625Z"/></svg>
